X: 69
T:Old Man and the Old Woman
R:reel
Z:added by alf.warnock@rogers.com
M:4/4
L:1/8
K:G
Bc|dedB GBdB|cdcB A3d|fgfe dfaf|gage d2Bc|
dedB GBdB|cdcB A3d|fgfe dfaf|g2gfg2:|
Bc|dg2f g2fe|df2e f2ed|ce2 de2 dc|BABcd2Bc|
dg2f g2fe|df2e f2ed|ce2 de2 dc|BGAFG2:|

